icons/sun-foggy-line.svg

<svg viewBox="0 0 24 24" fill="currentColor" xmlns="http://www.w3.org/2000/svg">
    <path d="M8 12H10V14H4V12H6C6 8.68629 8.68629 6 12 6C15.3137 6 18 8.68629 18 12C18 15.3137 15.3137 18 12 18V16C14.2091 16 16 14.2091 16 12C16 9.79086 14.2091 8 12 8C9.79086 8 8 9.79086 8 12ZM6 20H15V22H6V20ZM2 16H10V18H2V16ZM11 1H13V4H11V1ZM3.51472 4.92893L4.92893 3.51472L7.05025 5.63604L5.63604 7.05025L3.51472 4.92893ZM16.9497 18.364L18.364 16.9497L20.4853 19.0711L19.0711 20.4853L16.9497 18.364ZM19.0711 3.51472L20.4853 4.92893L18.364 7.05025L16.9497 5.63604L19.0711 3.51472ZM23 11V13H20V11H23Z"/>
</svg>

<svg xmlns="http://www.w3.org/2000/svg" viewBox="0 0 24 24">
    <g>
        <path fill="none" d="M0 0h24v24H0z"/>
        <path d="M8 12h2v2H4v-2h2a6 6 0 1 1 6 6v-2a4 4 0 1 0-4-4zm-2 8h9v2H6v-2zm-4-4h8v2H2v-2zm9-15h2v3h-2V1zM3.515 4.929l1.414-1.414L7.05 5.636 5.636 7.05 3.515 4.93zM16.95 18.364l1.414-1.414 2.121 2.121-1.414 1.414-2.121-2.121zm2.121-14.85l1.414 1.415-2.121 2.121-1.414-1.414 2.121-2.121zM23 11v2h-3v-2h3z"/>
    </g>
</svg>
